X:86
T:Sally Green
Z:Jack Campin - http://www.campin.me.uk
S:Blaikie MS (NLS MS.1578) p25
N:Blaikie #80
M:2/4
L:1/16
V:1 midi program 1 74
V:2 midi program 1 46 bass middle = d transpose -24
Q:1/4=80
K:F
[V:1] C2|FFFG A2GF|F2FG F3`F |A2B>c d2cA|
[V:2] z2|f2f2 f2f2|f2f2 f2f2 |f4    b2af|
%
[V:1]    G4   z2C2|F2FG A2F>A|c2df  c2A2|
[V:2]    c4   z2z2|f2f2 f2f2 |f2b2  a2f2|
%
[V:1]    B2GB A2FA|B2GB A2FA |d2cB  AFGA|F6|]
[V:2]    e2c2 f2F2|e2c2 f2F2 |B4    c4  |F6|]
W:Transcription (c) Jack Campin 2009, no mirroring or republication without permission

